X:517
T:La boite \`a frisson (version Wood/Cutting)
C:J. Blanchard
N:original url: www.wolfram.claranet.de
D:Wood/Cutting: Lusignac; Gout d'hier
M:3/4
L:1/8
Q:1/4=210
K:Dm
DE FD AF |{EF}E2 DE FD |AF ED EF |{A2}B4 BA |GA BG BG |{EF}E2 DE FG |
AG FA GF |{EF}E2 GF EF |DE FD AF |{EF}E2 DE FD |AF ED EF |{A2}B4 BA |
GA Bd BG |FE FA GF |ED EG EF |1 .D2 A,4 :|2 {DE}D2 A,D EF|
|: E3 E DE |FE FG AF |EF GA Bc |A2 A2 A2 |BF DF BF |AF CF AF |GD =B,D GD |{D2}E2 ED CD |
ED EF GE |FE FG AF |EF GA Bc |A2 A2 AA |1 BA Bd BG |FE FA GF |ED EG EF |
{DE}D2 A,D EF :|2 BA Bc de |fe dA GF |ED EG EF |D2 A,>B, {A,B,}A,2 ||
